FREEDESKTOP_MIME_TYPES_PATH/shared-mime-info-2.0/tests/mime-detection/test.ccmx
CCMX   

DESCRIPTOR "CCMX for LCD"
CREATED "Tue Jan  3 15:30:11 2012"
KEYWORD "COLOR_REP"
COLOR_REP "XYZ"

NUMBER_OF_FIELDS 3
BEGIN_DATA_FORMAT
XYZ_X XYZ_Y XYZ_Z 
END_DATA_FORMAT

NUMBER_OF_SETS 3
BEGIN_DATA
1.0 0.0 0.0
0.0 1.0 0.0
0.0 0.0 1.0
END_DATA
